src/images/heart-dimmed.svg

<svg width="19" height="17" viewBox="0 0 19 17" fill="none" xmlns="http://www.w3.org/2000/svg">
<path d="M16.7162 2.8126V0.830454H10.5298V2.80795H8.53367V0.828125H2.33799V2.81959H0.556152V8.8103H2.34265V11.0044H4.34576V12.8049H6.33723V14.999H8.34034V16.7832H10.7301V14.9943H12.7332V12.8002H14.7293V10.9974H16.7255V8.80564H18.5003V2.8126H16.7162ZM4.93039 7.19849H2.55228V3.03155H4.93039V7.19849Z" fill="#555555"/>
</svg>

<svg width="19" height="17" fill="none" xmlns="http://www.w3.org/2000/svg"><path d="M16.716 2.813V.83H10.53v1.978H8.534V.828H2.338V2.82H.556v5.99h1.787v2.194h2.003v1.8h1.991V15H8.34v1.784h2.39v-1.789h2.003V12.8h1.996v-1.803h1.997V8.806H18.5V2.813h-1.784zM4.93 7.198H2.552V3.032H4.93v4.166z" fill="#555"/></svg>
